src/assets/react.svg

<svg width="24" height="24" viewBox="0 0 24 24" fill="none" xmlns="http://www.w3.org/2000/svg">
<path d="M13.5 12.0192C13.5 12.8472 12.828 13.5192 12 13.5192C11.172 13.5192 10.5 12.8472 10.5 12.0192C10.5 11.1912 11.172 10.5192 12 10.5192C12.828 10.5192 13.5 11.1912 13.5 12.0192ZM19.883 16.6102C20.248 19.4272 19.632 21.5582 18.128 22.5052C17.588 22.8452 16.96 23.0182 16.275 23.0182C15.918 23.0182 15.546 22.9712 15.163 22.8762C14.149 22.6272 13.072 22.0562 11.997 21.2252C10.467 22.4092 8.995 23.0192 7.715 23.0192C7.04 23.0192 6.419 22.8492 5.871 22.5032C4.312 21.5212 3.745 19.3312 4.104 16.5802C1.497 15.4692 0 13.8312 0 12.0192C0 10.1362 1.57 8.5112 4.117 7.4282C3.752 4.6112 4.368 2.4802 5.872 1.5332C6.694 1.0142 7.719 0.885197 8.837 1.1612C9.854 1.4112 10.934 1.9852 12.013 2.8202C14.345 1.0212 16.55 0.538197 18.129 1.5332C19.688 2.5152 20.255 4.7052 19.896 7.4562C22.504 8.5692 24 10.2072 24 12.0182C24 13.9012 22.43 15.5272 19.883 16.6102ZM14.214 15.9082C14.605 15.3532 14.986 14.7762 15.34 14.1662C15.76 13.4432 16.121 12.7252 16.438 12.0192C16.112 11.2972 15.749 10.5752 15.34 9.8702C14.975 9.2412 14.597 8.6712 14.214 8.1282C13.489 8.0572 12.747 8.0182 11.999 8.0182C11.231 8.0182 10.493 8.0592 9.784 8.1292C9.391 8.6872 9.01 9.2642 8.658 9.8702C8.239 10.5922 7.877 11.3102 7.561 12.0152C7.887 12.7372 8.249 13.4602 8.659 14.1662C9.022 14.7912 9.398 15.3592 9.779 15.8992C10.506 15.9702 11.246 16.0172 12 16.0172C12.767 16.0172 13.506 15.9762 14.215 15.9062L14.214 15.9082ZM13.519 4.1802C14.785 5.4522 16.007 7.0362 17.07 8.8672C17.185 9.0642 17.286 9.2662 17.395 9.4662C18.31 6.3782 18.146 3.9082 17.062 3.2252C16.305 2.7482 14.989 3.1192 13.519 4.1792V4.1802ZM6.049 6.7622C7.784 6.2882 9.803 6.0192 12 6.0192C12.18 6.0192 12.358 6.0292 12.538 6.0332C10.98 4.3542 9.462 3.3752 8.36 3.1042C7.774 2.9592 7.295 3.0002 6.939 3.2262C6.2 3.6912 5.887 5.0092 6.05 6.7632L6.049 6.7622ZM6.929 8.8672C6.987 8.7682 7.051 8.6742 7.109 8.5752C4.006 9.3282 1.999 10.7252 1.999 12.0182C1.999 12.8952 2.942 13.8382 4.504 14.5782C4.982 12.7782 5.789 10.8302 6.928 8.8662L6.929 8.8672ZM10.479 19.8572C9.214 18.5852 7.992 17.0012 6.929 15.1722C6.814 14.9742 6.713 14.7722 6.604 14.5722C5.689 17.6602 5.853 20.1302 6.937 20.8142C7.697 21.2932 9.009 20.9192 10.478 19.8582L10.479 19.8572ZM17.95 17.2762C16.215 17.7502 14.196 18.0192 11.999 18.0192C11.817 18.0192 11.639 18.0062 11.458 18.0022C13.017 19.6832 14.536 20.6632 15.64 20.9352C16.226 21.0782 16.704 21.0372 17.061 20.8132C17.8 20.3482 18.113 19.0302 17.95 17.2762ZM21.999 12.0192C21.999 11.1432 21.056 10.2002 19.494 9.4592C19.016 11.2592 18.209 13.2072 17.07 15.1712C17.012 15.2712 16.949 15.3642 16.89 15.4622C19.993 14.7092 21.999 13.3122 21.999 12.0192Z" fill="white"/>
</svg>

<?xml version="1.0" encoding="UTF-8"?>
<svg xmlns="http://www.w3.org/2000/svg" id="Layer_1" data-name="Layer 1" viewBox="0 0 24 24">
  <path d="m13.5,12.02c0,.828-.672,1.5-1.5,1.5s-1.5-.672-1.5-1.5.672-1.5,1.5-1.5,1.5.672,1.5,1.5Zm6.383,4.591c.365,2.817-.251,4.948-1.755,5.895-.54.34-1.168.513-1.853.513-.357,0-.729-.047-1.112-.142-1.014-.249-2.091-.82-3.166-1.651-1.53,1.184-3.002,1.794-4.282,1.794-.675,0-1.296-.17-1.844-.516-1.559-.982-2.126-3.172-1.767-5.923C1.497,15.47,0,13.832,0,12.02c0-1.883,1.57-3.508,4.117-4.591-.365-2.817.251-4.948,1.755-5.895.822-.519,1.847-.648,2.965-.372,1.017.25,2.097.824,3.176,1.659,2.332-1.799,4.537-2.282,6.116-1.287,1.559.982,2.126,3.172,1.767,5.923,2.608,1.113,4.104,2.751,4.104,4.562,0,1.883-1.57,3.508-4.117,4.591Zm-5.669-.702c.391-.555.772-1.132,1.126-1.742.42-.723.781-1.441,1.098-2.147-.326-.722-.689-1.444-1.098-2.149-.365-.629-.743-1.199-1.126-1.742-.725-.071-1.467-.11-2.215-.11-.768,0-1.506.041-2.215.111-.393.558-.774,1.135-1.126,1.741-.419.722-.781,1.44-1.097,2.145.326.722.688,1.445,1.098,2.151.363.625.739,1.193,1.12,1.733.727.071,1.467.118,2.221.118.767,0,1.506-.041,2.215-.111Zm-.695-11.728c1.266,1.272,2.488,2.856,3.551,4.687.115.197.216.399.325.599.915-3.088.751-5.558-.333-6.241-.757-.477-2.073-.106-3.543.954Zm-7.47,2.582c1.735-.474,3.754-.743,5.951-.743.18,0,.358.01.538.014-1.558-1.679-3.076-2.658-4.178-2.929-.586-.145-1.065-.104-1.421.122-.739.465-1.052,1.783-.889,3.537Zm.88,2.105c.058-.099.122-.193.18-.292-3.103.753-5.11,2.15-5.11,3.443,0,.877.943,1.82,2.505,2.56.478-1.8,1.285-3.748,2.424-5.712Zm3.55,10.99c-1.265-1.272-2.487-2.856-3.55-4.685-.115-.198-.216-.4-.325-.6-.915,3.088-.751,5.558.333,6.242.76.479,2.072.105,3.541-.956Zm7.471-2.581c-1.735.474-3.754.743-5.951.743-.182,0-.36-.013-.541-.017,1.559,1.681,3.078,2.661,4.182,2.933.586.143,1.064.102,1.421-.122.739-.465,1.052-1.783.889-3.537Zm4.049-5.257c0-.876-.943-1.819-2.505-2.56-.478,1.8-1.285,3.748-2.424,5.712-.058.1-.121.193-.18.291,3.103-.753,5.11-2.15,5.11-3.443Z"/>
</svg>
